src/img/svg/bell.svg

<svg width="34" height="33" viewBox="0 0 34 33" fill="none" xmlns="http://www.w3.org/2000/svg">
<path d="M9.63379 2.80008L7.25046 0.416748C3.25046 3.46675 0.617122 8.16675 0.383789 13.5001H3.71712C3.96712 9.08341 6.23379 5.21675 9.63379 2.80008ZM30.2838 13.5001H33.6171C33.3671 8.16675 30.7338 3.46675 26.7505 0.416748L24.3838 2.80008C27.7505 5.21675 30.0338 9.08341 30.2838 13.5001ZM27.0005 14.3334C27.0005 9.21675 24.2671 4.93341 19.5005 3.80008V2.66675C19.5005 1.28341 18.3838 0.166748 17.0005 0.166748C15.6171 0.166748 14.5005 1.28341 14.5005 2.66675V3.80008C9.71712 4.93341 7.00046 9.20008 7.00046 14.3334V22.6667L3.66712 26.0001V27.6667H30.3338V26.0001L27.0005 22.6667V14.3334ZM17.0005 32.6667C17.2338 32.6667 17.4505 32.6501 17.6671 32.6001C18.7505 32.3667 19.6338 31.6334 20.0671 30.6334C20.2338 30.2334 20.3171 29.8001 20.3171 29.3334H13.6505C13.6671 31.1667 15.1505 32.6667 17.0005 32.6667Z" fill="white"/>
</svg>

<svg width="34" height="33" fill="none" xmlns="http://www.w3.org/2000/svg"><path d="M9.634 2.8L7.25.417C3.25 3.467.617 8.167.384 13.5h3.333A14.076 14.076 0 0 1 9.634 2.8zm20.65 10.7h3.333c-.25-5.333-2.883-10.033-6.866-13.083L24.383 2.8c3.366 2.417 5.65 6.283 5.9 10.7zM27 14.333c0-5.116-2.733-9.4-7.5-10.533V2.667c0-1.384-1.116-2.5-2.5-2.5a2.497 2.497 0 0 0-2.5 2.5V3.8C9.718 4.933 7 9.2 7 14.333v8.334L3.667 26v1.667h26.667V26L27 22.667v-8.334zM17 32.667c.234 0 .45-.017.667-.067a3.382 3.382 0 0 0 2.4-1.967c.167-.4.25-.833.25-1.3H13.65A3.357 3.357 0 0 0 17 32.667z" fill="#fff"/></svg>
